src/icons/translate.svg

<svg xmlns="http://www.w3.org/2000/svg" width="8" height="7" viewBox="0 0 8 7">
  <g>
    <path d="M5.52167442,2.13953488 L6.25627907,2.13953488 L8,6.94372093 L7.28706977,6.94372093 L6.78548837,5.50474419 L4.90074419,5.50474419 L4.37972093,6.94372093 L3.71255814,6.94372093 L5.52167442,2.13953488 Z M6.60083721,4.97488372 L5.8612093,2.85246512 L5.09255814,4.97488372 L6.60083721,4.97488372 Z"/>
    <path d="M4.8372093,5.48837209 C3.90697674,5.11627907 3.34883721,4.65116279 2.79069767,4.18604651 C2.79069767,4.18604651 2.90716279,4.30251163 2.79069767,4.18604651 C2.23255814,4.65116279 0.930232558,5.39534884 0.930232558,5.39534884 L0.558139535,4.8372093 C1.30232558,4.37209302 1.48837209,4.27906977 2.3255814,3.62790698 C2.13376744,3.4495814 1.20930233,2.41860465 1.11627907,1.86046512 L1.86046512,1.86046512 C2.23255814,2.69767442 2.79069767,3.1627907 2.79069767,3.1627907 C3.72093023,2.41860465 3.72093023,1.39534884 3.72093023,1.39534884 L4.46511628,1.39534884 C4.46511628,1.39534884 4.37209302,2.60465116 3.34883721,3.62790698 L3.34883721,3.62790698 C3.81395349,4.09302326 4.27906977,4.46511628 5.11627907,4.8372093 L4.8372093,5.48837209 Z M0,1.39534884 L5.20930233,1.39534884 L5.20930233,0.651162791 L3.06976744,0.651162791 L3.06976744,0 L2.23255814,0 L2.23255814,0.651162791 L0,0.651162791 L0,1.39534884 Z"/>
  </g>
</svg>

<svg xmlns="http://www.w3.org/2000/svg" viewBox="0 0 8 7"><path d="M5.522 2.14h.734L8 6.944h-.713l-.502-1.44H4.901l-.521 1.44h-.667L5.522 2.14zM6.6 4.975l-.74-2.123-.768 2.123H6.6z"/><path d="M4.837 5.488c-.93-.372-1.488-.837-2.046-1.302 0 0 .116.117 0 0-.558.465-1.86 1.21-1.86 1.21l-.373-.559c.744-.465.93-.558 1.768-1.21-.192-.177-1.117-1.208-1.21-1.767h.744c.373.838.93 1.303.93 1.303.93-.744.93-1.768.93-1.768h.745s-.093 1.21-1.116 2.233c.465.465.93.837 1.767 1.21l-.279.65zM0 1.395h5.21V.651H3.07V0h-.837v.651H0v.744z"/></svg>
